X: 37219
T: Sister Jean
R: barndance
M: 4/4
K: Dmajor
|:dB|ABde f2 fd|g2 ge f2 fg|f2 ef gecd|e2 d2 d2:|
|:fg|a2 A2 AFAd|B2 G2 A2 Ag|f2 ef gecd|e2 d2 d2:|

